icons/1_Primary/Gitea.svg

<svg width="1024" height="1024" fill="none" xmlns="http://www.w3.org/2000/svg"><g clip-path="url(#a)"><path d="M512 1024c282.77 0 512-229.23 512-512S794.77 0 512 0 0 229.23 0 512s229.23 512 512 512Z" fill="#98DC9A"/><path d="M762.22 350.27c-100.92 5.34-160.75 8-212 8.48v114.12l-16-7.94-.1-106.11c-58.88 0-110.69-3.1-209.06-8.55-12.31-.13-29.47-2.44-47.9-2.49-47.11-.13-110.23 33.54-106.74 118C175.84 597.63 296 609.86 344 610.92c5.27 24.74 61.79 110.07 103.63 114.56H631c109.93-8.23 192.25-373.82 131.22-375.21Zm-546 117.38c-4.69-36.57 11.8-74.84 73.19-73.2C296.09 462 307 501.55 329 561.95c-56.18-7.43-104-25.78-112.78-94.3Zm415.58 83.44-51.32 105.62a27.047 27.047 0 0 1-25.947 15.184 27.062 27.062 0 0 1-10.213-2.674L438.7 617.9a27.062 27.062 0 0 1-13.746-15.489 27.046 27.046 0 0 1 1.236-20.671l51.32-105.62a27.024 27.024 0 0 1 6.377-8.414 27.042 27.042 0 0 1 29.783-4.096l105.62 51.32a27.06 27.06 0 0 1 13.746 15.488 27.048 27.048 0 0 1-1.236 20.672Zm-73.22 64.71a17.164 17.164 0 0 1-5.867 19.569 17.162 17.162 0 0 1-26.668-8.674 17.156 17.156 0 0 1 6.768-19.276 17.152 17.152 0 0 1 10.347-2.939l.36-.74c14.11-28.93 21.88-44.87 19.26-52.35-2.08-5.92-12.58-10.88-30-19.11L530 531a16.995 16.995 0 0 1-13 4.18l-23 47.15a17.194 17.194 0 0 1 4.986 10.454 17.195 17.195 0 0 1-12.048 18.183 17.2 17.2 0 1 1-5.168-33.637l23.62-48.39a17.114 17.114 0 0 1-2.125-18.36 17.116 17.116 0 0 1 6.497-7.108A17.114 17.114 0 0 1 519.07 501l13.81-28.28 11.85 5.79-13.58 27.81a17.088 17.088 0 0 1 4.68 13l2.55 1.21c21.17 10 32.83 15.53 36.72 26.59 4.43 12.62-2.67 27.19-19.84 62.39l-.24.48a17.09 17.09 0 0 1 3.56 5.81Z" fill="#fff"/></g><defs><clipPath id="a"><path fill="#fff" d="M0 0h1024v1024H0z"/></clipPath></defs></svg>

<svg width="1024" height="1024" viewBox="0 0 1024 1024" fill="none" xmlns="http://www.w3.org/2000/svg">
<g clip-path="url(#clip0_2_2280)">
<path d="M512 1024C794.77 1024 1024 794.77 1024 512C1024 229.23 794.77 0 512 0C229.23 0 0 229.23 0 512C0 794.77 229.23 1024 512 1024Z" fill="#98DC9A"/>
<path d="M762.22 350.27C661.3 355.61 601.47 358.27 550.22 358.75V472.87L534.22 464.93L534.12 358.82C475.24 358.82 423.43 355.72 325.06 350.27C312.75 350.14 295.59 347.83 277.16 347.78C230.05 347.65 166.93 381.32 170.42 465.78C175.84 597.63 296 609.86 344 610.92C349.27 635.66 405.79 720.99 447.63 725.48H631C740.93 717.25 823.25 351.66 762.22 350.27ZM216.22 467.65C211.53 431.08 228.02 392.81 289.41 394.45C296.09 462 307 501.55 329 561.95C272.82 554.52 225 536.17 216.22 467.65ZM631.8 551.09L580.48 656.71C578.928 659.906 576.761 662.765 574.103 665.124C571.446 667.482 568.35 669.294 564.992 670.456C561.634 671.618 558.08 672.106 554.533 671.894C550.986 671.682 547.516 670.773 544.32 669.22L438.7 617.9C435.504 616.347 432.645 614.181 430.286 611.523C427.927 608.866 426.115 605.769 424.954 602.411C423.792 599.053 423.303 595.499 423.515 591.953C423.727 588.406 424.636 584.935 426.19 581.74L477.51 476.12C479.062 472.923 481.229 470.064 483.887 467.706C486.544 465.347 489.64 463.535 492.998 462.373C496.356 461.212 499.91 460.723 503.457 460.935C507.004 461.147 510.474 462.056 513.67 463.61L619.29 514.93C622.486 516.482 625.345 518.649 627.704 521.306C630.063 523.964 631.874 527.06 633.036 530.418C634.198 533.776 634.687 537.33 634.475 540.877C634.262 544.424 633.354 547.894 631.8 551.09ZM558.58 615.8C559.828 619.259 559.932 623.029 558.876 626.552C557.82 630.076 555.659 633.166 552.713 635.369C549.767 637.571 546.191 638.768 542.513 638.784C538.835 638.8 535.249 637.634 532.284 635.457C529.319 633.281 527.132 630.209 526.045 626.695C524.958 623.181 525.029 619.411 526.248 615.94C527.466 612.469 529.768 609.482 532.813 607.419C535.858 605.355 539.485 604.325 543.16 604.48L543.52 603.74C557.63 574.81 565.4 558.87 562.78 551.39C560.7 545.47 550.2 540.51 532.78 532.28L530 531C528.24 532.557 526.176 533.733 523.938 534.452C521.701 535.172 519.338 535.419 517 535.18L494 582.33C496.821 585.133 498.583 588.828 498.986 592.784C499.39 596.741 498.41 600.715 496.213 604.03C494.016 607.345 490.738 609.797 486.938 610.967C483.137 612.138 479.048 611.955 475.366 610.45C471.685 608.945 468.639 606.211 466.747 602.713C464.855 599.215 464.233 595.169 464.988 591.264C465.743 587.36 467.828 583.837 470.887 581.296C473.947 578.756 477.793 577.354 481.77 577.33L505.39 528.94C503.315 526.404 502.012 523.326 501.635 520.072C501.258 516.817 501.824 513.523 503.265 510.58C504.705 507.638 506.961 505.171 509.762 503.472C512.564 501.774 515.795 500.916 519.07 501L532.88 472.72L544.73 478.51L531.15 506.32C532.792 508.041 534.057 510.087 534.863 512.325C535.669 514.564 535.998 516.946 535.83 519.32L538.38 520.53C559.55 530.53 571.21 536.06 575.1 547.12C579.53 559.74 572.43 574.31 555.26 609.51L555.02 609.99C556.585 611.668 557.795 613.644 558.58 615.8Z" fill="white"/>
</g>
<defs>
<clipPath id="clip0_2_2280">
<rect width="1024" height="1024" fill="white"/>
</clipPath>
</defs>
</svg>
